img/logos/flexible-gs.svg

<?xml version="1.0" encoding="UTF-8" standalone="no"?>
<svg width="256px" height="280px" viewBox="0 0 256 280" version="1.1" xmlns="http://www.w3.org/2000/svg" xmlns:xlink="http://www.w3.org/1999/xlink" preserveAspectRatio="xMinYMin meet">
    <g>
        <path d="M75.2941176,109.062902 L75.2941176,169.556706 L128.76549,200.680784 L180.705882,170.432627 L180.705882,109.055373 L128.077804,78.3353725 L75.2941176,109.062902 L75.2941176,109.062902 Z M230.954667,51.3901176 L203.120941,35.3374118 L149.734902,65.9971765 L203.294118,96.6569412 L203.294118,158.162196 L256,127.479843 L256,95.2037647 C256,77.1030588 246.693647,60.3877647 230.954667,51.3901176 L230.954667,51.3901176 Z M181.689725,22.9941961 L153.155765,6.68047059 C137.574902,-2.22682353 118.427608,-2.22682353 102.844235,6.68047059 L74.470902,22.9013333 L128.090353,53.638902 L181.689725,22.9941961 L181.689725,22.9941961 Z M203.294118,243.902118 L231.03498,227.766588 C246.773961,218.766431 256,202.051137 256,183.952941 L256,152.166275 L203.294118,182.851137 L203.294118,243.902118 L203.294118,243.902118 Z M75.2941176,194.245647 L75.2941176,256.175059 L103.326118,272.476235 C118.90698,281.383529 137.333961,281.383529 152.914824,272.476235 L180.705882,256.175059 L180.705882,195.121569 L128.76549,225.364706 L75.2941176,194.245647 L75.2941176,194.245647 Z M52.8539608,35.2370196 L25.0252549,51.3901176 C9.28627451,60.3877647 0,77.1030588 0,95.2037647 L0,126.601412 L52.7058824,157.283765 L52.7058824,96.646902 L106.435765,65.9745882 L52.8539608,35.2370196 L52.8539608,35.2370196 Z M0,183.952941 C0,202.053647 9.22603922,218.768941 24.9650196,227.766588 L52.7058824,243.902118 L52.7058824,181.972706 L0,151.287843 L0,183.952941 L0,183.952941 Z" fill="#222222"></path>
    </g>
</svg>

<svg width="256" height="280" viewBox="0 0 256 280" xmlns="http://www.w3.org/2000/svg" preserveAspectRatio="xMinYMin meet"><path d="M75.294 109.063v60.494l53.47 31.124 51.942-30.247v-61.378l-52.628-30.72-52.784 30.728zm155.66-57.673l-27.833-16.053-53.385 30.66 53.56 30.66v61.505L256 127.48V95.204c0-18.1-9.306-34.816-25.045-43.814zM181.69 22.994L153.156 6.68c-15.58-8.907-34.728-8.907-50.312 0L74.47 22.9l53.62 30.74 53.6-30.646zm21.604 220.908l27.74-16.135c15.74-9 24.966-25.716 24.966-43.814v-31.787l-52.706 30.685v61.052zm-128-49.656v61.93l28.032 16.3c15.58 8.908 34.008 8.908 49.59 0l27.79-16.3V195.12l-51.94 30.243-53.472-31.12zm-22.44-159.01L25.024 51.39C9.287 60.388 0 77.103 0 95.204V126.6l52.706 30.684V96.647l53.73-30.672-53.582-30.738zM0 183.954c0 18.1 9.226 34.816 24.965 43.814l27.74 16.135v-61.93L0 151.29v32.665z" fill="#222"/></svg>
